images/icons/delete-icon.svg

<svg width="14px" height="19px" viewBox="0 0 14 19" version="1.1" xmlns="http://www.w3.org/2000/svg" xmlns:xlink="http://www.w3.org/1999/xlink">
    <!-- Generator: Sketch 50.2 (55047) - http://www.bohemiancoding.com/sketch -->
    <desc>Created with Sketch.</desc>
    <defs></defs>
    <g id="Wireframes---Desktop" stroke="none" stroke-width="1" fill="none" fill-rule="evenodd" opacity="0.5">
        <g id="Dash---My-Files---Estate-Planning---Home-Management-(list---selected)" transform="translate(-1121.000000, -405.000000)" fill="#000000">
            <g id="Group-3" transform="translate(957.000000, 239.000000)">
                <path d="M169.34204,182.21416 L169.349852,182.21416 C169.570952,182.210254 169.746732,182.027442 169.742812,181.80712 L169.542812,171.05092 C169.538906,170.82982 169.355312,170.64858 169.135772,170.65874 C168.914672,170.662646 168.738892,170.845458 168.742812,171.06578 L168.942812,181.82198 C168.945938,182.03994 169.124844,182.21416 169.342032,182.21416 L169.34204,182.21416 Z M172.26704,182.21416 C172.48422,182.21416 172.66314,182.039942 172.66704,181.8212 L172.86704,171.065 C172.870946,170.8439 172.695164,170.66188 172.47408,170.65796 L172.466268,170.65796 C172.249088,170.65796 172.070168,170.832178 172.066268,171.05092 L171.866268,181.80712 C171.862362,182.02822 172.038144,182.21024 172.259228,182.21416 L172.26704,182.21416 Z M176.19604,170.65796 C175.96714,170.654054 175.79058,170.824366 175.78354,171.04468 L175.38276,183.48528 C175.38276,183.87904 175.06244,184.20012 174.66948,184.20012 L166.93988,184.20012 C166.54534,184.20012 166.22504,183.8798 166.22504,183.47278 L165.82504,171.04458 C165.81801,170.82348 165.63754,170.65318 165.41254,170.65786 C165.19144,170.664892 165.01878,170.850048 165.02582,171.07036 L165.42582,183.48516 C165.42582,184.32032 166.1055,185 166.94066,185 L174.67026,185 C175.50464,185 176.18354,184.32032 176.18354,183.49844 L176.58354,171.07024 C176.58979,170.84914 176.416352,170.66478 176.19604,170.65774 L176.19604,170.65796 Z M177.20776,168.65796 L173.98596,168.65796 L173.65158,167.04546 C173.613298,166.859522 173.44924,166.7267 173.26018,166.7267 L168.34838,166.7267 C168.158536,166.7267 167.99526,166.859512 167.95698,167.04546 L167.6226,168.65796 L164.4,168.65796 C164.1789,168.65796 164,168.836866 164,169.05796 C164,169.27906 164.178906,169.45796 164.4,169.45796 L167.9476,169.45796 L167.948382,169.45796 L173.659382,169.45796 L173.660944,169.45796 L173.661726,169.45796 L177.207726,169.45796 C177.428826,169.45796 177.607726,169.279054 177.607726,169.05796 C177.607726,168.83686 177.42882,168.65796 177.207726,168.65796 L177.20776,168.65796 Z M168.43976,168.65796 L168.67414,167.52672 L172.93514,167.52672 L173.16952,168.65796 L168.43976,168.65796 Z" id="Page-1"></path>
            </g>
        </g>
    </g>
</svg>

<svg height="24" viewBox="0 0 24 24" width="24" xmlns="http://www.w3.org/2000/svg"><path d="m169.34204 182.21416h.008c.2211-.004.39688-.18672.39296-.40704l-.2-10.7562c-.004-.2211-.1875-.40234-.40704-.39218-.2211.004-.39688.18672-.39296.40704l.2 10.7562c.003.21796.18203.39218.39922.39218zm2.925 0c.21718 0 .3961-.17422.4-.39296l.2-10.7562c.004-.2211-.17188-.40312-.39296-.40704h-.008c-.21718 0-.3961.17422-.4.39296l-.2 10.7562c-.004.2211.17187.40312.39296.40704zm3.929-11.5562c-.2289-.004-.40546.16641-.4125.38672l-.40078 12.4406c0 .39376-.32032.71484-.71328.71484h-7.7296c-.39454 0-.71484-.32032-.71484-.72734l-.4-12.4282c-.007-.2211-.1875-.3914-.4125-.38672-.2211.007-.39376.19219-.38672.4125l.4 12.4148c0 .83516.67968 1.51484 1.51484 1.51484h7.7296c.83438 0 1.51328-.67968 1.51328-1.50156l.4-12.4282c.006-.2211-.16719-.40546-.3875-.4125zm1.01172-2h-3.2218l-.33438-1.6125c-.0383-.18594-.20234-.31876-.3914-.31876h-4.9118c-.18984 0-.35312.13281-.3914.31876l-.33438 1.6125h-3.2226c-.2211 0-.4.17891-.4.4 0 .2211.17891.4.4.4h3.5476.00078 5.711.002.00079 3.546c.2211 0 .4-.17891.4-.4 0-.2211-.17891-.4-.4-.4zm-8.768 0 .23438-1.13124h4.261l.23438 1.13124z" fill-rule="evenodd" opacity=".5" transform="matrix(1.3084059 0 0 1.3084059 -211.5997536 -218.0550914)"/></svg>
